symbols/fr/C_C-Cv.svg

<?xml version="1.0" encoding="UTF-8"?>
<svg xmlns="http://www.w3.org/2000/svg" xmlns:xlink="http://www.w3.org/1999/xlink" width="13.937" height="24" viewBox="0 0 13.937 24">
<path fill-rule="nonzero" fill="rgb(0%, 0%, 0%)" fill-opacity="1" d="M 0.15625 19.644531 L 4.199219 19.644531 C 4.285156 19.644531 4.355469 19.714844 4.355469 19.800781 L 4.355469 23.84375 C 4.355469 23.929688 4.285156 24 4.199219 24 L 0.15625 24 C 0.0703125 24 0 23.929688 0 23.84375 L 0 19.800781 C 0 19.714844 0.0703125 19.644531 0.15625 19.644531 Z M 0.15625 19.644531 "/>
<path fill-rule="nonzero" fill="rgb(20%, 20%, 20%)" fill-opacity="1" d="M 3.109375 21.824219 C 3.109375 22.335938 2.691406 22.753906 2.175781 22.753906 C 1.664062 22.753906 1.246094 22.335938 1.246094 21.824219 C 1.246094 21.308594 1.664062 20.890625 2.175781 20.890625 C 2.691406 20.890625 3.109375 21.308594 3.109375 21.824219 Z M 3.109375 21.824219 "/>
<path fill-rule="nonzero" fill="rgb(0%, 0%, 0%)" fill-opacity="1" d="M 4.914062 14.15625 L 13.9375 14.15625 L 13.9375 23.175781 L 4.914062 23.175781 Z M 4.914062 14.15625 "/>
<path fill-rule="nonzero" fill="rgb(0%, 0%, 0%)" fill-opacity="1" d="M 9.425781 0 C 11.917969 0 13.9375 2.019531 13.9375 4.511719 L 13.9375 18.664062 C 13.9375 21.15625 11.917969 23.175781 9.425781 23.175781 C 6.933594 23.175781 4.914062 21.15625 4.914062 18.664062 L 4.914062 4.511719 C 4.914062 2.019531 6.933594 0 9.425781 0 Z M 9.425781 0 "/>
<path fill-rule="nonzero" fill="rgb(0%, 0%, 0%)" fill-opacity="1" d="M 4.914062 14.15625 L 13.9375 14.15625 L 13.9375 23.175781 L 4.914062 23.175781 Z M 4.914062 14.15625 "/>
<path fill-rule="nonzero" fill="rgb(100%, 100%, 100%)" fill-opacity="1" d="M 9.425781 0.234375 C 11.789062 0.234375 13.703125 2.148438 13.703125 4.511719 L 13.703125 18.199219 C 13.703125 20.5625 11.789062 22.476562 9.425781 22.476562 C 7.0625 22.476562 5.148438 20.5625 5.148438 18.199219 L 5.148438 4.511719 C 5.148438 2.148438 7.0625 0.234375 9.425781 0.234375 Z M 9.425781 0.234375 "/>
<path fill-rule="nonzero" fill="rgb(0%, 0%, 0%)" fill-opacity="1" d="M 9.417969 0.691406 C 11.523438 0.691406 13.230469 2.398438 13.230469 4.503906 L 13.230469 18.191406 C 13.230469 20.296875 11.523438 22.003906 9.417969 22.003906 C 7.3125 22.003906 5.609375 20.296875 5.609375 18.191406 L 5.609375 4.503906 C 5.609375 2.398438 7.3125 0.691406 9.417969 0.691406 Z M 9.417969 0.691406 "/>
<path fill-rule="nonzero" fill="rgb(20%, 20%, 20%)" fill-opacity="1" d="M 10.757812 11.347656 C 10.757812 12.078125 10.164062 12.667969 9.433594 12.667969 C 8.703125 12.667969 8.113281 12.078125 8.113281 11.347656 C 8.113281 10.617188 8.703125 10.023438 9.433594 10.023438 C 10.164062 10.023438 10.757812 10.617188 10.757812 11.347656 Z M 10.757812 11.347656 "/>
<path fill-rule="nonzero" fill="rgb(20%, 20%, 20%)" fill-opacity="1" d="M 10.757812 14.769531 C 10.757812 15.5 10.164062 16.089844 9.433594 16.089844 C 8.703125 16.089844 8.113281 15.5 8.113281 14.769531 C 8.113281 14.039062 8.703125 13.445312 9.433594 13.445312 C 10.164062 13.445312 10.757812 14.039062 10.757812 14.769531 Z M 10.757812 14.769531 "/>
<path fill-rule="nonzero" fill="rgb(20%, 20%, 20%)" fill-opacity="1" d="M 10.757812 18.191406 C 10.757812 18.921875 10.164062 19.511719 9.433594 19.511719 C 8.703125 19.511719 8.113281 18.921875 8.113281 18.191406 C 8.113281 17.460938 8.703125 16.867188 9.433594 16.867188 C 10.164062 16.867188 10.757812 17.460938 10.757812 18.191406 Z M 10.757812 18.191406 "/>
<path fill-rule="nonzero" fill="rgb(20%, 20%, 20%)" fill-opacity="1" d="M 10.757812 7.925781 C 10.757812 8.65625 10.164062 9.246094 9.433594 9.246094 C 8.703125 9.246094 8.113281 8.65625 8.113281 7.925781 C 8.113281 7.195312 8.703125 6.601562 9.433594 6.601562 C 10.164062 6.601562 10.757812 7.195312 10.757812 7.925781 Z M 10.757812 7.925781 "/>
<path fill-rule="nonzero" fill="rgb(100%, 0%, 100%)" fill-opacity="1" d="M 10.757812 4.503906 C 10.757812 5.234375 10.164062 5.824219 9.433594 5.824219 C 8.703125 5.824219 8.113281 5.234375 8.113281 4.503906 C 8.113281 3.773438 8.703125 3.179688 9.433594 3.179688 C 10.164062 3.179688 10.757812 3.773438 10.757812 4.503906 Z M 10.757812 4.503906 "/>
</svg>

<?xml version="1.0" encoding="UTF-8"?>
<svg version="1.1" viewBox="0 0 13.937 24" xmlns="http://www.w3.org/2000/svg"><path d="m0.15625 19.645h4.043c0.085937 0 0.15625 0.070313 0.15625 0.15625v4.043c0 0.085938-0.070313 0.15625-0.15625 0.15625h-4.043c-0.085938 0-0.15625-0.070312-0.15625-0.15625v-4.043c0-0.085937 0.070312-0.15625 0.15625-0.15625z"/><path d="m3.1094 21.824c0 0.51172-0.41797 0.92969-0.93359 0.92969-0.51172 0-0.92969-0.41797-0.92969-0.92969 0-0.51562 0.41797-0.93359 0.92969-0.93359 0.51562 0 0.93359 0.41797 0.93359 0.93359z" fill="#333"/><path d="m4.9141 14.156h9.0234v9.0195h-9.0234z"/><path d="m9.4258 0c2.4922 0 4.5117 2.0195 4.5117 4.5117v14.152c0 2.4922-2.0195 4.5117-4.5117 4.5117s-4.5117-2.0195-4.5117-4.5117v-14.152c0-2.4922 2.0195-4.5117 4.5117-4.5117z"/><path d="m4.9141 14.156h9.0234v9.0195h-9.0234z"/><path d="m9.4258 0.23438c2.3633 0 4.2773 1.9141 4.2773 4.2773v13.688c0 2.3633-1.9141 4.2773-4.2773 4.2773s-4.2773-1.9141-4.2773-4.2773v-13.688c0-2.3633 1.9141-4.2773 4.2773-4.2773z" fill="#fff"/><path d="m9.418 0.69141c2.1055 0 3.8125 1.707 3.8125 3.8125v13.688c0 2.1055-1.707 3.8125-3.8125 3.8125s-3.8086-1.707-3.8086-3.8125v-13.688c0-2.1055 1.7031-3.8125 3.8086-3.8125z"/><g fill="#333"><path d="m10.758 11.348c0 0.73047-0.59375 1.3203-1.3242 1.3203-0.73047 0-1.3203-0.58984-1.3203-1.3203 0-0.73047 0.58984-1.3242 1.3203-1.3242 0.73047 0 1.3242 0.59375 1.3242 1.3242z"/><path d="m10.758 14.77c0 0.73047-0.59375 1.3203-1.3242 1.3203-0.73047 0-1.3203-0.58984-1.3203-1.3203s0.58984-1.3242 1.3203-1.3242c0.73047 0 1.3242 0.59375 1.3242 1.3242z"/><path d="m10.758 18.191c0 0.73047-0.59375 1.3203-1.3242 1.3203-0.73047 0-1.3203-0.58984-1.3203-1.3203 0-0.73047 0.58984-1.3242 1.3203-1.3242 0.73047 0 1.3242 0.59375 1.3242 1.3242z"/><path d="m10.758 7.9258c0 0.73047-0.59375 1.3203-1.3242 1.3203-0.73047 0-1.3203-0.58984-1.3203-1.3203s0.58984-1.3242 1.3203-1.3242c0.73047 0 1.3242 0.59375 1.3242 1.3242z"/></g><path d="m10.758 4.5039c0 0.73047-0.59375 1.3203-1.3242 1.3203-0.73047 0-1.3203-0.58984-1.3203-1.3203 0-0.73047 0.58984-1.3242 1.3203-1.3242 0.73047 0 1.3242 0.59375 1.3242 1.3242z" fill="#f0f"/></svg>
